icons/folder-arrow-up-outline.svg

<svg xmlns="http://www.w3.org/2000/svg" width="24" height="24" viewBox="0 0 24 24">
  <path d="M11,4 C11.2652165,4 11.5195704,4.10535684 11.7071068,4.29289322 L11.7071068,4.29289322 L13.415,6 L19,6 C20.5976809,6 21.9036609,7.24891996 21.9949073,8.82372721 L21.9949073,8.82372721 L22,9 L22,17 C22,18.6568542 20.6568542,20 19,20 L19,20 L5,20 C3.34314575,20 2,18.6568542 2,17 L2,17 L2,7 C2,5.34314575 3.34314575,4 5,4 L5,4 Z M10.585,6 L5,6 C4.44771525,6 4,6.44771525 4,7 L4,7 L4,17 C4,17.5522847 4.44771525,18 5,18 L5,18 L19,18 C19.5522847,18 20,17.5522847 20,17 L20,17 L20,9 C20,8.44771525 19.5522847,8 19,8 L19,8 L13,8 C12.7347835,8 12.4804296,7.89464316 12.2928932,7.70710678 L12.2928932,7.70710678 L10.585,6 Z M12,9 L12.019,9.001 L12.03,9.001 L12.081,9.003 L12.1489612,9.01101934 L12.1489612,9.01101934 C12.165949,9.01362808 12.1833753,9.01670217 12.2007258,9.02024007 C12.2227461,9.0246398 12.2444365,9.02983363 12.2658396,9.03572097 C12.2814633,9.04009773 12.2968513,9.04472872 12.3121425,9.04973809 C12.3317977,9.05612249 12.3515792,9.06331574 12.3710585,9.07110396 L12.4232215,9.09367336 L12.4232215,9.09367336 C12.4438914,9.10337664 12.4642939,9.11379392 12.484277,9.12487577 C12.4963944,9.13149883 12.5086131,9.13860692 12.5207088,9.14599545 C12.546275,9.1617187 12.5711307,9.17849009 12.5951593,9.19631351 C12.6012086,9.20071786 12.6070733,9.20517454 12.6128994,9.20970461 C12.6196628,9.21507113 12.6225624,9.2173721 12.625449,9.21968877 L12.7071068,9.29289322 L15.7071068,12.2928932 C16.0976311,12.6834175 16.0976311,13.3165825 15.7071068,13.7071068 C15.3466228,14.0675907 14.7793918,14.0953203 14.3871006,13.7902954 L14.2928932,13.7071068 L13,12.415 L13,16 C13,16.5522847 12.5522847,17 12,17 C11.4871642,17 11.0644928,16.6139598 11.0067277,16.1166211 L11,16 L11,12.415 L9.70710678,13.7071068 C9.31658249,14.0976311 8.68341751,14.0976311 8.29289322,13.7071068 C7.93240926,13.3466228 7.90467972,12.7793918 8.20970461,12.3871006 L8.29289322,12.2928932 L11.2928932,9.29289322 L11.37,9.224 L11.38,9.215 L11.4046934,9.19633458 L11.4046934,9.19633458 C11.4288693,9.17849009 11.453725,9.1617187 11.4793398,9.14606743 L11.5159379,9.12467117 L11.5159379,9.12467117 C11.5357061,9.11379392 11.5561086,9.10337664 11.5769009,9.09365378 L11.628664,9.07122549 L11.628664,9.07122549 C11.6484208,9.06331574 11.6682023,9.05612249 11.6882636,9.04954668 C11.7031487,9.04472872 11.7185367,9.04009773 11.734007,9.03584514 C11.7555635,9.02983363 11.7772539,9.0246398 11.7992059,9.02016515 C11.8166247,9.01670217 11.834051,9.01362808 11.8515331,9.0110178 L11.909968,9.00399798 L11.909968,9.00399798 C11.9208131,9.00307004 11.9308872,9.00232561 11.9409686,9.0017331 L11.980824,9.00018018 L12,9 L12,9 Z"/>
</svg>

<svg xmlns="http://www.w3.org/2000/svg" viewBox="0 0 24 24">
  <path d="M11 4a1 1 0 0 1 .7.3L13.42 6H19a3 3 0 0 1 3 2.82V17a3 3 0 0 1-3 3H5a3 3 0 0 1-3-3V7a3 3 0 0 1 3-3zm-.41 2H5a1 1 0 0 0-1 1v10a1 1 0 0 0 1 1h14a1 1 0 0 0 1-1V9a1 1 0 0 0-1-1h-6a1 1 0 0 1-.7-.3L10.58 6zM12 9h.08l.07.01a1.08 1.08 0 0 1 .22.06l.05.02a1.02 1.02 0 0 1 .2.13l.09.07 3 3a1 1 0 0 1-1.32 1.5l-.1-.08L13 12.4V16a1 1 0 0 1-2 .12V12.4l-1.3 1.3a1 1 0 0 1-1.49-1.32l.08-.1 3-3 .08-.07h.01l.02-.02.08-.05.04-.03.06-.03.05-.02a.99.99 0 0 1 .22-.06h.09l.04-.01H12z"/>
</svg>
